X:1
T:Title
%%score { ( 1 2 5 ) | ( 3 4 ) }
L:1/8
Q:1/4=100
M:4/4
K:C
V:1 treble nm="Grand Piano"
V:2 treble 
V:5 treble 
V:3 bass 
V:4 bass 
V:1
 z4 z2 [Ec]2 | [Ad]2 cd [Ge]4 | e2 [Ge]2 [DGd]2 .[EAd]2 | z2 [^FA]2 G4 | z4 z2 [Ec]2 | %5
 [Ad]2 cd [^Ge]4 | [Ge]2 [GA]2 [Ff]2 [Ge][DAd] |[M:5/4] [EGc]2 [DFB]2 [CEc]6 | %8
[M:4/4] [CAc]3 [CAc] [D^GB][Ac][Gd]c | A3 C F4 | [EG]3 [_E^F] [=EG][=FA][Ac][G_B] | %11
 [FA]2 [^Gd]2 [CAc]2 z2 | [CAc]3 [CAc] [D^GB][Ac][Gd]c | A3 C F2 A2 | G3 G z Gce | e3 d [Ec]2 z2 | %16
 [G_B]3 [FA] [EG][FA][GB]d | [CAc]3 [D^GB] [CAc]2 z2 | [G_B]3 [FA] [EG][FA][GB]d | %19
 [CAc]3 [CF_B] [CA]-[CFA]Ac | f2 f2 f3 f | f2 f2 e2 d2 | [Fc]3 [Fc] [Fd]2 [Fc]2 | %23
 [Ec]3 [CE_B] [CA]-[CFA]Ac | f2 f2 f3 f | f2 f2 e2 d2 | [Fc]3 [Ff] [Fc]2 [D_B]A | %27
[M:9/8] [CEA]3 [_B,EG] [A,F]2 [DFGB]3 |[M:4/4] z4 z2 [Ec]2 | [Ad]2 cd [Ge]4 | %30
 e2 [Ge]2 [DGd]2 .[EAd]2 | z2 [^FA]2 G4 | z4 z2 [Ec]2 | [Ad]2 cd [^Ge]4 | %34
 [Ge]2 [GA]2 [Ff]2 [Ge][Ad] |[M:3/4] [Gc]2 [FB]2 [Ec]2 |[M:1/4] dd |[M:4/4] eedd eedd | %38
[M:3/4] z2 d2 z2 |[M:1/4] dd |[M:4/4] eedd eedd | %41
[M:5/4] ee z2 z g2 B3[Q:1/4=98][Q:1/4=97][Q:1/4=95][Q:1/4=94][Q:1/4=92][Q:1/4=91][Q:1/4=89][Q:1/4=88][Q:1/4=86][Q:1/4=84][Q:1/4=83][Q:1/4=81][Q:1/4=80][Q:1/4=78][Q:1/4=77] | %42
[M:6/4] [CEc]12 |] %43
V:2
 [Ec]2 [Fc]2 [Gc]2 z C | x8 | x8 | [GB]2 z C z2 =F2 | [Ec]2 [Fc]2 [Gc]2 z C | z2 A2 z4 | x8 | %7
[M:5/4] x10 |[M:4/4] x8 | x8 | x8 | x8 | x8 | x8 | z4 E2 z2 | x8 | x8 | x8 | x8 | z4 .F2 z2 | x8 | %21
 x8 | x8 | z4 .F2 z2 | x8 | x8 | z4 z2 F2 |[M:9/8] x9 |[M:4/4] [Ec]2 [Fc]2 [Gc]2 z C | x8 | x8 | %31
 [GB]2 z C z2 =F2 | [Ec]2 [Fc]2 [Gc]2 z C | z2 A2 z4 | x8 |[M:3/4] x6 |[M:1/4] x2 |[M:4/4] x8 | %38
[M:3/4] ee z F [Ec]2 |[M:1/4] x2 |[M:4/4] x8 |[M:5/4] x10 |[M:6/4] x12 |] %43
V:3
 [C,G,]2 [F,A,]2 [E,G,]2 .[C,G,]2 | z2[K:treble] [G,G]2[K:bass] z4 | %2
 [CG]2 [C,C]2 B,,2 z[K:treble] c | D,2 D,2 [G,B,]4 | [C,G,]2 [F,A,]2 [E,G,]2 .[C,G,]2 | %5
 [F,C]2 [F,A,]2 [E,B,]4 | [A,^C]2 [A,C]2 [D,D]2 [E,C]F, |[M:5/4] G,2 G,2 C,6 | %8
[M:4/4] F,3 F, z CB,[K:treble][CA] | [F,CF]3[K:bass] [F,A,] [F,A,C]4 | [C,C]3 [C,C] [C,C]2 [C,C]2 | %11
 [F,C]2 [F,B,]2 F,2 z2 | F,3 F, z CB,[K:treble][CA] | %13
 [F,CF]3[K:bass] [F,A,] [A,C]2[K:treble] [CF]2 | [G,CE]3 [G,CE] [G,C]2 EG | %15
 [G,B,G]3 [G,B,F][K:bass] [C,C]2 z2 | [C,C]3 [C,C] [C,C]2 z[K:treble] _B | F,3 F, z A,G,F, | %18
 [C,C]3 [C,C] [C,C]2 z[K:treble] _B | F,3 F, F,F,A,[K:treble]C | [DFA]2 [DFA]2 [C_EA]3 [CEA] | %21
 [_B,D_B]2 [B,DF]2[K:bass] F2- [_B,,B,F]2 | [C,A,]3 [C,A,] [C,A,]2 [C,A,]2 | %23
 [C,G,]3 C, F,F,A,[K:treble]C | [DFA]2 [DFA]2 [C_EA]3 [CEA] | %25
 [_B,D_B]2 [B,DF]2[K:bass] F2- [_B,,B,F]2 | [C,A,]3 [C,A,] [C,A,]2 z C | %27
[M:9/8] C,3 C, F,2 [G,,G,]3 |[M:4/4] [C,G,]2 [F,A,]2 [E,G,]2 .[C,G,]2 | %29
 [F,C]2[K:treble] [G,G]-[G,B,G][K:bass] [C,C]4 | [CG]2 [C,C]2 B,,2 z[K:treble] c | %31
 D,2 D,2 [G,B,]4 | [C,G,]2 [F,A,]2 [E,G,]2 .[C,G,]2 | [F,C]2 [F,A,]2 [E,B,]4 | %34
 [A,^C]2 [A,C]2 [D,D]2 [E,C][F,D] |[M:3/4] [G,E]2 [G,D]2 [C,C]2 |[M:1/4][K:treble] [G,B,G][G,B,G] | %37
[M:4/4] [CG][CG][G,B,G][G,B,G] [CG][CG][G,B,G][G,B,G] |[M:3/4] [CG][CG] .[G,B,G]2[K:bass] [C,C]2 | %39
[M:1/4][K:treble] [G,B,G][G,B,G] |[M:4/4] [CG][CG][G,B,G][G,B,G] [CG][CG][G,B,G][G,B,G] | %41
[M:5/4] [CG][CG] z2 z [G,F]2- [G,DF]3 |[M:6/4][K:bass] C,12 |] %43
V:4
 x8 | [F,C]2[K:treble] A,B,[K:bass] [C,C]4 | z4 z2 C,2[K:treble] | x8 | x8 | x8 | x8 |[M:5/4] x10 | %8
[M:4/4] z4 F,2 F,2[K:treble] | x3[K:bass] x5 | x8 | x8 | z4 F,2 F,2[K:treble] | %13
 z4[K:bass] F,4[K:treble] | z4 z2 [G,C]2 | x4[K:bass] x4 | z4 z2 [C,C]2[K:treble] | z4 F,2 z2 | %18
 z4 z2 [C,C]2[K:treble] | x7[K:treble] x | x8 | z4[K:bass] [_B,C]2 z2 | x8 | x7[K:treble] x | x8 | %25
 z4[K:bass] [_B,C]2 z2 | z4 z2 C,2 |[M:9/8] x9 |[M:4/4] x8 | z2[K:treble] .A,2[K:bass] z4 | %30
 z4 z2 C,2[K:treble] | x8 | x8 | x8 | x8 |[M:3/4] x6 |[M:1/4][K:treble] x2 |[M:4/4] x8 | %38
[M:3/4] x4[K:bass] x2 |[M:1/4][K:treble] x2 |[M:4/4] x8 |[M:5/4] z2 z2 z .B,3 z2 | %42
[M:6/4][K:bass] x12 |] %43
V:5
 x8 | x8 | x8 | D4 z4 | x8 | x8 | x8 |[M:5/4] x10 |[M:4/4] x8 | x8 | x8 | x8 | x8 | x8 | x8 | x8 | %16
 x8 | x8 | x8 | x8 | x8 | x8 | x8 | x8 | x8 | x8 | x8 |[M:9/8] x9 |[M:4/4] x8 | x8 | x8 | D4 z4 | %32
 x8 | x8 | x8 |[M:3/4] x6 |[M:1/4] x2 |[M:4/4] x8 |[M:3/4] x6 |[M:1/4] x2 |[M:4/4] x8 | %41
[M:5/4] x10 |[M:6/4] x12 |] %43

